svgs/duotone/stretcher.svg

<svg xmlns="http://www.w3.org/2000/svg" viewBox="0 0 640 512"><!-- Font Awesome Pro 6.0.0-alpha2 by @fontawesome - https://fontawesome.com License - https://fontawesome.com/license (Commercial License) --><defs><style>.fa-secondary{opacity:.4}</style></defs><path d="M480 384C467.389 384 455.707 387.773 445.797 394.072L409.297 368L518.795 288H436.559L368 338.502L299.441 288H217.205L326.703 368L290.203 394.072C280.293 387.773 268.611 384 256 384C220.654 384 192 412.652 192 448C192 483.346 220.654 512 256 512S320 483.346 320 448C320 442.863 319.234 437.934 318.092 433.146L368 397.498L417.908 433.146C416.766 437.934 416 442.863 416 448C416 483.346 444.654 512 480 512S544 483.346 544 448C544 412.652 515.346 384 480 384ZM256 464C247.178 464 240 456.822 240 448S247.178 432 256 432S272 439.178 272 448S264.822 464 256 464ZM480 464C471.178 464 464 456.822 464 448S471.178 432 480 432S496 439.178 496 448S488.822 464 480 464Z" class="fa-secondary"/><path d="M640 223.996V255.998C640 273.623 625.625 288 608 288H177.617C159.367 288 141.867 280.125 129.742 266.498L8.115 138.492C-3.635 125.242 -2.51 105.117 10.74 93.365L34.615 72.115C47.867 60.365 68.117 61.49 79.867 74.74L191.992 191.996H608C625.625 191.996 640 206.371 640 223.996Z" class="fa-primary"/></svg>

<svg xmlns="http://www.w3.org/2000/svg" viewBox="0 0 640 512"><!--! Font Awesome Pro 6.3.0 by @fontawesome - https://fontawesome.com License - https://fontawesome.com/license (Commercial License) Copyright 2023 Fonticons, Inc. --><defs><style>.fa-secondary{opacity:.4}</style></defs><path class="fa-primary" d="M640 223.1v32C640 273.6 625.6 288 608 288H177.6C159.4 288 141.9 280.1 129.7 266.5L8.115 138.5c-11.75-13.25-10.62-33.38 2.625-45.13l23.88-21.25c13.25-11.75 33.5-10.62 45.25 2.625l112.1 117.3H608C625.6 191.1 640 206.4 640 223.1z"/><path class="fa-secondary" d="M480 384c-12.61 0-24.29 3.773-34.2 10.07L409.3 368l109.5-80h-82.24L368 338.5L299.4 288H217.2l109.5 80l-36.5 26.07C280.3 387.8 268.6 384 255.1 384c-35.35 0-64 28.65-64 63.1c0 35.35 28.65 64 64 64S319.1 483.3 319.1 448c0-5.137-.765-10.07-1.908-14.85L368 397.5l49.91 35.65C416.8 437.9 415.1 442.9 415.1 448c0 35.35 28.65 64 64 64s64-28.65 64-64C544 412.7 515.3 384 480 384zM255.1 464c-8.822 0-16-7.178-16-16s7.178-16 15.1-16C264.8 432 271.1 439.2 271.1 448S264.8 464 255.1 464zM480 464c-8.822 0-16-7.178-16-16S471.2 432 480 432s16 7.178 16 16S488.8 464 480 464z"/></svg>
